inst/assets/svg/wi-strong-wind.svg

<?xml version="1.0" encoding="UTF-8"?>
<svg xmlns="http://www.w3.org/2000/svg" xmlns:xlink="http://www.w3.org/1999/xlink" width="30pt" height="30pt" viewBox="0 0 30 30" version="1.1">
<g id="surface906">
<path style=" stroke:none;fill-rule:nonzero;fill:rgb(0%,0%,0%);fill-opacity:1;" d="M 3.101563 16.96875 C 3.101563 17.210938 3.191406 17.421875 3.378906 17.589844 C 3.539063 17.78125 3.75 17.871094 4.011719 17.871094 L 18.699219 17.871094 C 18.988281 17.871094 19.230469 17.96875 19.429688 18.171875 C 19.628906 18.371094 19.730469 18.621094 19.730469 18.910156 C 19.730469 19.199219 19.628906 19.441406 19.429688 19.628906 C 19.230469 19.820313 18.988281 19.921875 18.691406 19.921875 C 18.398438 19.921875 18.148438 19.820313 17.960938 19.628906 C 17.800781 19.449219 17.601563 19.371094 17.359375 19.371094 C 17.109375 19.371094 16.898438 19.460938 16.71875 19.628906 C 16.539063 19.800781 16.449219 20.011719 16.449219 20.238281 C 16.449219 20.488281 16.539063 20.699219 16.730469 20.871094 C 17.289063 21.421875 17.949219 21.699219 18.691406 21.699219 C 19.46875 21.699219 20.140625 21.429688 20.699219 20.890625 C 21.261719 20.351563 21.53125 19.699219 21.53125 18.921875 C 21.53125 18.140625 21.25 17.480469 20.691406 16.921875 C 20.128906 16.359375 19.460938 16.078125 18.691406 16.078125 L 4.011719 16.078125 C 3.761719 16.078125 3.550781 16.171875 3.371094 16.339844 C 3.191406 16.511719 3.101563 16.71875 3.101563 16.96875 Z M 3.101563 13.691406 C 3.101563 13.921875 3.191406 14.121094 3.378906 14.300781 C 3.550781 14.480469 3.761719 14.558594 4.011719 14.558594 L 24.050781 14.558594 C 24.828125 14.558594 25.5 14.289063 26.058594 13.738281 C 26.621094 13.199219 26.898438 12.539063 26.898438 11.769531 C 26.898438 11 26.621094 10.328125 26.058594 9.78125 C 25.5 9.230469 24.828125 8.949219 24.050781 8.949219 C 23.28125 8.949219 22.628906 9.21875 22.101563 9.75 C 21.921875 9.910156 21.828125 10.128906 21.828125 10.421875 C 21.828125 10.679688 21.921875 10.890625 22.089844 11.050781 C 22.261719 11.210938 22.46875 11.289063 22.71875 11.289063 C 22.960938 11.289063 23.171875 11.210938 23.351563 11.050781 C 23.539063 10.839844 23.769531 10.738281 24.050781 10.738281 C 24.339844 10.738281 24.578125 10.839844 24.78125 11.039063 C 24.980469 11.238281 25.078125 11.480469 25.078125 11.769531 C 25.078125 12.058594 24.980469 12.300781 24.78125 12.488281 C 24.578125 12.679688 24.339844 12.78125 24.050781 12.78125 L 4.011719 12.78125 C 3.761719 12.78125 3.550781 12.871094 3.371094 13.039063 C 3.191406 13.230469 3.101563 13.441406 3.101563 13.691406 Z M 3.101563 13.691406 "/>
</g>
</svg>

<?xml version="1.0" encoding="utf-8"?>
<!-- Generator: Adobe Illustrator 22.0.1, SVG Export Plug-In . SVG Version: 6.00 Build 0)  -->
<svg version="1.1" id="Layer_1" xmlns="http://www.w3.org/2000/svg" xmlns:xlink="http://www.w3.org/1999/xlink" x="0px" y="0px"
	 viewBox="0 0 30 30" style="enable-background:new 0 0 30 30;" xml:space="preserve">
<path d="M3.1,16.97c0,0.24,0.09,0.45,0.28,0.62c0.16,0.19,0.37,0.28,0.63,0.28H18.7c0.29,0,0.53,0.1,0.73,0.3
	c0.2,0.2,0.3,0.45,0.3,0.74c0,0.29-0.1,0.53-0.3,0.72c-0.2,0.19-0.44,0.29-0.74,0.29c-0.29,0-0.54-0.1-0.73-0.29
	c-0.16-0.18-0.36-0.26-0.6-0.26c-0.25,0-0.46,0.09-0.64,0.26s-0.27,0.38-0.27,0.61c0,0.25,0.09,0.46,0.28,0.63
	c0.56,0.55,1.22,0.83,1.96,0.83c0.78,0,1.45-0.27,2.01-0.81c0.56-0.54,0.83-1.19,0.83-1.97s-0.28-1.44-0.84-2
	c-0.56-0.56-1.23-0.84-2-0.84H4.01c-0.25,0-0.46,0.09-0.64,0.26C3.19,16.51,3.1,16.72,3.1,16.97z M3.1,13.69
	c0,0.23,0.09,0.43,0.28,0.61c0.17,0.18,0.38,0.26,0.63,0.26h20.04c0.78,0,1.45-0.27,2.01-0.82c0.56-0.54,0.84-1.2,0.84-1.97
	c0-0.77-0.28-1.44-0.84-1.99s-1.23-0.83-2.01-0.83c-0.77,0-1.42,0.27-1.95,0.8c-0.18,0.16-0.27,0.38-0.27,0.67
	c0,0.26,0.09,0.47,0.26,0.63c0.17,0.16,0.38,0.24,0.63,0.24c0.24,0,0.45-0.08,0.63-0.24c0.19-0.21,0.42-0.31,0.7-0.31
	c0.29,0,0.53,0.1,0.73,0.3c0.2,0.2,0.3,0.44,0.3,0.73c0,0.29-0.1,0.53-0.3,0.72c-0.2,0.19-0.44,0.29-0.73,0.29H4.01
	c-0.25,0-0.46,0.09-0.64,0.26C3.19,13.23,3.1,13.44,3.1,13.69z"/>
</svg>
